build/img/tg-icon.svg

<svg width="57" height="57" viewBox="0 0 57 57" fill="none" xmlns="http://www.w3.org/2000/svg">
<circle cx="28.5" cy="28.5" r="28.5" fill="#198FFC"/>
<path d="M35.4354 20.582C34.9352 20.0686 34.1949 19.8773 33.5046 20.0787L17.408 24.7595C16.6797 24.9619 16.1635 25.5427 16.0244 26.2806C15.8824 27.0315 16.3786 27.9848 17.0268 28.3834L22.0599 31.4768C22.5761 31.7939 23.2424 31.7144 23.6696 31.2835L29.4329 25.4843C29.723 25.1823 30.2032 25.1823 30.4934 25.4843C30.7835 25.7762 30.7835 26.2493 30.4934 26.5513L24.72 32.3516C24.2918 32.7814 24.2118 33.4508 24.5269 33.9702L27.6022 39.0538C27.9623 39.6577 28.5826 40 29.2628 40C29.3429 40 29.4329 40 29.513 39.9899C30.2933 39.8893 30.9135 39.3558 31.1436 38.6008L35.9156 22.5248C36.1257 21.8403 35.9356 21.0954 35.4354 20.582Z" fill="white"/>
</svg>

<svg width="57" height="57" fill="none" xmlns="http://www.w3.org/2000/svg"><circle cx="28.5" cy="28.5" r="28.5" fill="#198FFC"/><path d="M35.435 20.582a1.933 1.933 0 00-1.93-.503l-16.097 4.68a1.92 1.92 0 00-1.384 1.522c-.142.75.355 1.704 1.003 2.102l5.033 3.094a1.304 1.304 0 001.61-.194l5.763-5.799a.734.734 0 011.06 0c.29.292.29.765 0 1.067l-5.773 5.8c-.428.43-.508 1.1-.193 1.62l3.075 5.083c.36.604.98.946 1.66.946.08 0 .17 0 .251-.01.78-.1 1.4-.634 1.63-1.39l4.773-16.075c.21-.685.02-1.43-.48-1.943z" fill="#fff"/></svg>
